X:1
T:All Souls, 10.10.10.10
T:All Souls, 10.10.10.10
T:John Yoakley, before 1907
T:Public Domain Courtesy of the Cyber Hymnal™
C:John Yoakley, before 1907
Z:Public Domain
Z:Courtesy of the Cyber Hymnal™
%%score ( 1 2 ) ( 3 4 )
L:1/8
Q:1/4=115
M:4/4
K:D
V:1 treble 
V:2 treble 
V:3 bass 
V:4 bass 
V:1
 [DF]4 [CE]2 D2 | [DG]4 [DF]4 | [DB]2 [DB]2 [DA]2 [CE]2 | [DF]6 [DF]2 | [D^G]4 A4 | %5
 [Ed]2 [Ec]2 [FB]2 [FA]2 | [EA]4 ^G4 | [CA]6 [EA]2 | [DA]4 [EG]4 | [DF]2 [DF]2 [CE]2 D2 | %10
 [DB]4 [EB]4 | [F^A]6 F2 | [FB]4 c4 | [Dd]2 [DB]2 [DG]2 [DF]2 | [DE]4 [CE]4 | D8 |] %16
V:2
 x6 D2 | x8 | x8 | x8 | x4 (C2 F2) | x8 | x4 (E2 D2) | x8 | x8 | x6 D2 | x8 | x6 F2 | x4 (F2 E2) | %13
 x8 | x8 | D8 |] %16
V:3
 [D,A,]4 [A,,A,]2 [B,,F,]2 | B,4 [D,A,]4 | [G,,G,]2 [G,,F,]2 [A,,E,]2 [A,,A,]2 | [D,A,]6 [B,,B,]2 | %4
 [E,B,]4 [F,A,]4 | [^G,B,]2 [A,C]2 [D,D]2 [D,C]2 | [E,B,]4 [E,B,]4 | [A,,A,]6 [A,,C]2 | %8
 [B,,D]4 [C,A,]4 | [D,A,]2 [D,A,]2 [E,G,]2 [F,A,]2 | G,4 [G,B,]4 | [F,C]6 [E,^A,]2 | %12
 [D,B,]4 [F,^A,]4 | [B,,B,]2 [B,,F,]2 [B,,G,]2 [A,,A,]2 | [G,,B,]4 (A,2 G,2) | [D,F,]8 |] %16
V:4
 x8 | (G,,2 B,,2) x4 | x8 | x8 | x8 | x8 | x8 | x8 | x8 | x8 | G,4 x4 | x8 | x8 | x8 | x4 A,,4 | %15
 x8 |] %16

